X: 1
T: David Knight in Brunswick
C: by T. Traub 11-11-2004
N: In memory of our great gig in Brunswick, Maine, on October 18, 2004
R: jig
M: 6/8
L: 1/8
K: D
A |:\
"D"dAf fed | "A"eAg gfe |\
"D"fda afd | "G"agf "A"e2 f |\
"D"dAf "Bm"fed |
"G"eAg "A"gfe | "D (G)"fed "A"Adc |\
[1 "D"d3 "A"ABc :|[2 "D"d3 "(F#)"d2 |: F |\
"Bm"BFB dcB | "F#"cFc edc |
"Bm"BFB dcB | "Em"cgf "F#"edc |\
"Bm"BFB dcB | "F#"cFc edc |\
"G"Bgf "F#" edc | "Bm"B3 B2 :|
